public/stickers/tiktok.svg

<svg width="256" height="256" fill="none" xmlns="http://www.w3.org/2000/svg"><g clip-path="url(#a)"><mask id="b" mask-type="alpha" maskUnits="userSpaceOnUse" x="0" y="0" width="256" height="256"><path fill-rule="evenodd" clip-rule="evenodd" d="M128 256c102.4 0 128-25.6 128-128S230.4 0 128 0 0 25.6 0 128s25.6 128 128 128Z" fill="#000"/></mask><g mask="url(#b)"><path fill-rule="evenodd" clip-rule="evenodd" d="M128 256c102.4 0 128-25.6 128-128S230.4 0 128 0 0 25.6 0 128s25.6 128 128 128Z" fill="#010101"/><path d="M120.738 53 86 58.92V213h34.738v-58.292c0-17.154 9.062-27.78 16.613-27.78 6.797 0 8.76 6.831 8.76 17.154V213H181v-73.928c0-23.377-8.76-38.406-31.566-38.406-10.723 0-21.145 3.036-28.696 9.867V53Z" fill="#EC3750"/><path d="M110.738 43 76 48.92V203h34.738v-58.292c0-17.154 9.062-27.78 16.613-27.78 6.797 0 8.76 6.831 8.76 17.154V203H171v-73.928c0-23.377-8.76-38.406-31.566-38.406-10.723 0-21.145 3.036-28.696 9.867V43Z" fill="#70F4FD"/><path d="M115.738 48 81 53.92V208h34.738v-58.292c0-17.154 9.062-27.78 16.613-27.78 6.797 0 8.76 6.831 8.76 17.154V208H176v-73.928c0-23.377-8.76-38.406-31.566-38.406-10.723 0-21.145 3.036-28.696 9.867V48Z" fill="#fff" fill-opacity=".97"/></g></g><defs><clipPath id="a"><path fill="#fff" transform="rotate(90 128 128)" d="M0 0h256v256H0z"/></clipPath></defs></svg>

<svg width="256" height="256" viewBox="0 0 256 256" fill="none" xmlns="http://www.w3.org/2000/svg">
<g id="tiktok" clip-path="url(#clip0)">
<mask id="mask0" mask-type="alpha" maskUnits="userSpaceOnUse" x="0" y="0" width="256" height="256">
<path id="Vector" fill-rule="evenodd" clip-rule="evenodd" d="M128 256C230.4 256 256 230.4 256 128C256 25.6 230.4 0 128 0C25.6 0 0 25.6 0 128C0 230.4 25.6 256 128 256Z" fill="black"/>
</mask>
<g mask="url(#mask0)">
<path id="Vector_2" fill-rule="evenodd" clip-rule="evenodd" d="M128 256C230.4 256 256 230.4 256 128C256 25.6 230.4 0 128 0C25.6 0 0 25.6 0 128C0 230.4 25.6 256 128 256Z" fill="#010101"/>
<g id="Group">
<path id="path3866" d="M120.738 53L86 58.9203V213H120.738V154.708C120.738 137.554 129.8 126.928 137.351 126.928C144.148 126.928 146.111 133.759 146.111 144.082V213H181V139.072C181 115.695 172.24 100.666 149.434 100.666C138.711 100.666 128.289 103.702 120.738 110.533V53Z" fill="#EC3750"/>
<path id="path3866_2" d="M110.738 43L76 48.9203V203H110.738V144.708C110.738 127.554 119.8 116.928 127.351 116.928C134.148 116.928 136.111 123.759 136.111 134.082V203H171V129.072C171 105.695 162.24 90.666 139.434 90.666C128.711 90.666 118.289 93.702 110.738 100.533V43Z" fill="#70F4FD"/>
</g>
<path id="path3866_3" d="M115.738 48L81 53.9203V208H115.738V149.708C115.738 132.554 124.8 121.928 132.351 121.928C139.148 121.928 141.111 128.759 141.111 139.082V208H176V134.072C176 110.695 167.24 95.666 144.434 95.666C133.711 95.666 123.289 98.702 115.738 105.533V48Z" fill="white" fill-opacity="0.97"/>
</g>
</g>
<defs>
<clipPath id="clip0">
<rect width="256" height="256" fill="white" transform="translate(256) rotate(90)"/>
</clipPath>
</defs>
</svg>
